icons/shield-slash-24.svg

<svg width="24" height="24" viewBox="0 0 24 24" fill="none" xmlns="http://www.w3.org/2000/svg">
<path d="M12.5402 1.13669C12.1889 1.02278 11.8107 1.02288 11.4595 1.13698L6.01824 2.90492C5.6243 3.03292 5.40871 3.45603 5.53671 3.84997C5.6647 4.24392 6.08782 4.45951 6.48176 4.33151L11.923 2.56357C11.9732 2.54727 12.0272 2.54725 12.0774 2.56352L20.3271 5.23911C20.4308 5.27274 20.5 5.36847 20.5 5.47618V10.5C20.5 11.7839 20.2603 13.3298 19.8036 14.4714C19.6498 14.856 19.8369 15.2925 20.2215 15.4463C20.606 15.6002 21.0425 15.4131 21.1964 15.0285C21.7397 13.6701 22 11.9269 22 10.5V5.47618C22 4.71705 21.5108 4.04608 20.7899 3.81228L12.5402 1.13669Z" fill="black"/>
<path fill-rule="evenodd" clip-rule="evenodd" d="M2.01653 4.84263L1.04307 4.09473C0.71461 3.84237 0.652913 3.37152 0.90527 3.04306C1.15763 2.71459 1.62848 2.6529 1.95694 2.90525L22.4569 18.6553C22.7854 18.9076 22.8471 19.3785 22.5947 19.7069C22.3424 20.0354 21.8715 20.0971 21.5431 19.8447L19.5311 18.2989L18.8288 19.1512C18.8264 19.1541 18.8239 19.1571 18.8214 19.16C18.8186 19.1633 18.8158 19.1666 18.8129 19.1698C17.2097 20.9907 15.0815 22.3926 12.5985 23.3295C12.2124 23.4751 11.7862 23.4747 11.401 23.3293C5.7708 21.2049 2.00001 16.6893 2 10.5L2 4.99998C2 4.94601 2.0057 4.89337 2.01653 4.84263ZM3.5 5.98237L3.5 10.5C3.5 15.9613 6.78075 19.9827 11.9305 21.9259C11.9753 21.9428 12.025 21.9426 12.069 21.9261C14.3518 21.0648 16.2609 19.795 17.6791 18.1877L18.3409 17.3845L3.5 5.98237Z" fill="black"/>
</svg>

<svg xmlns="http://www.w3.org/2000/svg" width="24" height="24" viewBox="0 0 24 24"><path d="M12.54 1.137a1.748 1.748 0 0 0-1.08 0L6.018 2.905a.75.75 0 1 0 .464 1.427l5.441-1.768a.239.239 0 0 1 .154 0l8.25 2.675a.249.249 0 0 1 .173.237V10.5c0 1.284-.24 2.83-.696 3.971a.75.75 0 1 0 1.392.557C21.74 13.67 22 11.927 22 10.5V5.476a1.75 1.75 0 0 0-1.21-1.664l-8.25-2.675ZM2.017 4.843l-.974-.748a.751.751 0 0 1 .914-1.19l20.5 15.75a.751.751 0 0 1-.914 1.19l-2.012-1.546-.702.852-.008.009a.07.07 0 0 1-.008.01c-1.603 1.821-3.731 3.223-6.214 4.16a1.699 1.699 0 0 1-1.198-.001C5.771 21.205 2 16.689 2 10.5V5c0-.054.006-.107.017-.157ZM3.5 5.982V10.5c0 5.461 3.281 9.483 8.431 11.426a.193.193 0 0 0 .138 0c2.283-.861 4.192-2.131 5.61-3.738l.662-.803Z"/></svg>
